assets/img/master-visa.svg

<svg width="89" height="30" xmlns="http://www.w3.org/2000/svg"><g fill="none"><path d="M42 26a4 4 0 01-4 4H4a4 4 0 01-4-4V4a4 4 0 014-4h34a4 4 0 014 4v22z" fill="#1565C0"/><path d="M12.186 10L9.56 17.832s-.667-3.313-.733-3.729c-1.495-3.411-3.701-3.221-3.701-3.221L7.726 21v-.002h3.161L15.258 10h-3.072zm2.503 11h2.871l1.736-11h-2.907l-1.7 11zm20.319-11h-3.021l-4.71 11h2.852l.588-1.571h3.596L34.619 21h2.613l-2.224-11zm-3.495 7.328l1.563-4.157.818 4.157h-2.381zm-8.144-4.122c0-.606.498-1.057 1.926-1.057.928 0 1.991.674 1.991.674l.466-2.309s-1.358-.515-2.691-.515c-3.019 0-4.576 1.444-4.576 3.272 0 3.306 3.979 2.853 3.979 4.551 0 .291-.231.964-1.888.964-1.662 0-2.759-.609-2.759-.609l-.495 2.216s1.063.606 3.117.606c2.059 0 4.915-1.54 4.915-3.752 0-2.661-3.985-2.853-3.985-4.041z" fill="#FFF"/><path d="M9.212 15.945l-.966-4.748s-.437-1.029-1.573-1.029h-4.44s5.661 1.672 6.979 5.777z" fill="#FFC107"/><path d="M89 26a4 4 0 01-4 4H51a4 4 0 01-4-4V4a4 4 0 014-4h34a4 4 0 014 4v22z" fill="#3F51B5"/><path d="M74 5c-5.523 0-10 4.477-10 10s4.477 10 10 10 10-4.477 10-10S79.523 5 74 5z" fill="#FFC107"/><path d="M66.014 21a9.983 9.983 0 01-1.176-2h5.325a9.9 9.9 0 00.637-2h-6.598A9.976 9.976 0 0164 15h7c0-.686-.07-1.354-.201-2h-6.598a9.964 9.964 0 01.637-2h5.325a9.936 9.936 0 00-1.176-2h-2.973c.437-.58.93-1.122 1.481-1.595A9.955 9.955 0 0061 5c-5.523 0-10 4.477-10 10s4.477 10 10 10c3.269 0 6.162-1.575 7.986-4h-2.972z" fill="#FF3D00"/></g></svg>

<?xml version="1.0" encoding="UTF-8"?>
<svg width="89px" height="30px" viewBox="0 0 89 30" version="1.1" xmlns="http://www.w3.org/2000/svg" xmlns:xlink="http://www.w3.org/1999/xlink">
    <!-- Generator: Sketch 64 (93537) - https://sketch.com -->
    <title>Group 2</title>
    <desc>Created with Sketch.</desc>
    <g id="Welcome" stroke="none" stroke-width="1" fill="none" fill-rule="evenodd">
        <g id="order-summery-1.0" transform="translate(-452.000000, -658.000000)" fill-rule="nonzero">
            <g id="Group-2" transform="translate(452.000000, 658.000000)">
                <g id="icons8-visa-copy">
                    <path d="M42,26 C42,28.209 40.209,30 38,30 L4,30 C1.791,30 0,28.209 0,26 L0,4 C0,1.791 1.791,0 4,0 L38,0 C40.209,0 42,1.791 42,4 L42,26 Z" id="Path" fill="#1565C0"></path>
                    <path d="M12.186,10 L9.56,17.832 C9.56,17.832 8.893,14.519 8.827,14.103 C7.332,10.692 5.126,10.882 5.126,10.882 L7.726,21 L7.726,20.998 L10.887,20.998 L15.258,10 L12.186,10 Z M14.689,21 L17.56,21 L19.296,10 L16.389,10 L14.689,21 Z M35.008,10 L31.987,10 L27.277,21 L30.129,21 L30.717,19.429 L34.313,19.429 L34.619,21 L37.232,21 L35.008,10 Z M31.513,17.328 L33.076,13.171 L33.894,17.328 L31.513,17.328 Z M23.369,13.206 C23.369,12.6 23.867,12.149 25.295,12.149 C26.223,12.149 27.286,12.823 27.286,12.823 L27.752,10.514 C27.752,10.514 26.394,9.999 25.061,9.999 C22.042,9.999 20.485,11.443 20.485,13.271 C20.485,16.577 24.464,16.124 24.464,17.822 C24.464,18.113 24.233,18.786 22.576,18.786 C20.914,18.786 19.817,18.177 19.817,18.177 L19.322,20.393 C19.322,20.393 20.385,20.999 22.439,20.999 C24.498,20.999 27.354,19.459 27.354,17.247 C27.354,14.586 23.369,14.394 23.369,13.206 Z" id="Shape" fill="#FFFFFF"></path>
                    <path d="M9.212,15.945 L8.246,11.197 C8.246,11.197 7.809,10.168 6.673,10.168 C5.537,10.168 2.233,10.168 2.233,10.168 C2.233,10.168 7.894,11.84 9.212,15.945 Z" id="Path" fill="#FFC107"></path>
                </g>
                <g id="icons8-mastercard-copy" transform="translate(47.000000, 0.000000)">
                    <path d="M42,26 C42,28.209 40.209,30 38,30 L4,30 C1.791,30 0,28.209 0,26 L0,4 C0,1.791 1.791,0 4,0 L38,0 C40.209,0 42,1.791 42,4 L42,26 Z" id="Path" fill="#3F51B5"></path>
                    <path d="M27,5 C21.4771525,5 17,9.4771525 17,15 C17,20.5228475 21.4771525,25 27,25 C32.5228475,25 37,20.5228475 37,15 C37,9.4771525 32.5228475,5 27,5 Z" id="Path" fill="#FFC107"></path>
                    <path d="M19.014,21 C18.55,20.383 18.151,19.716 17.838,19 L23.163,19 C23.441,18.364 23.659,17.696 23.8,17 L17.202,17 C17.07,16.354 17,15.686 17,15 L24,15 C24,14.314 23.93,13.646 23.799,13 L17.201,13 C17.343,12.304 17.56,11.636 17.838,11 L23.163,11 C22.85,10.284 22.452,9.617 21.987,9 L19.014,9 C19.451,8.42 19.944,7.878 20.495,7.405 C18.747,5.909 16.481,5 14,5 C8.477,5 4,9.477 4,15 C4,20.523 8.477,25 14,25 C17.269,25 20.162,23.425 21.986,21 L19.014,21 Z" id="Path" fill="#FF3D00"></path>
                </g>
            </g>
        </g>
    </g>
</svg>
